client/public/static/images/use-case-finance.svg

<svg fill="none" height="56" viewBox="0 0 56 56" width="56" xmlns="http://www.w3.org/2000/svg" xmlns:xlink="http://www.w3.org/1999/xlink"><linearGradient id="a" gradientUnits="userSpaceOnUse" x1="2.28794" x2="56.0591" y1="33.2753" y2="34.3241"><stop offset="0" stop-color="#938eff"/><stop offset="1" stop-color="#b0acfb"/></linearGradient><path d="m46.9245 19.2731-40.12225 4.1297c-3.20449.3298-5.54664 3.1601-5.23134 6.3217l2.03383 20.393c.31531 3.1615 3.16867 5.4571 6.37317 5.1273l40.12229-4.1297c3.2045-.3299 5.5466-3.1602 5.2313-6.3218l-2.0338-20.3929c-.3153-3.1616-3.1687-5.4572-6.3732-5.1273z" fill="url(#a)" opacity=".4"/><g stroke-linecap="round" stroke-linejoin="round"><path d="m38.1399 3.88833 4.2087.14805c1.1162.03927 2.171.53043 2.9323 1.36542.7613.835 1.1667 1.94543 1.1272 3.08703l-1.0445 30.13077c-.0396 1.1416-.521 2.2209-1.3382 3.0003-.8173.7795-1.9035 1.1953-3.0197 1.1561l-25.2522-.8884c-1.1162-.0392-2.171-.5304-2.9323-1.3654s-1.1668-1.9454-1.1272-3.087l1.0445-30.13079c.0396-1.1416.5209-2.22084 1.3382-3.00031.8173-.77946 1.9035-1.1953 3.0197-1.15604z" stroke="#1a202c" stroke-width="1.95349"/><path d="m16.8804 8.89346 18.5938-1.63623c.9863-.08679 1.9683.24499 2.73.92235.7616.67736 1.2406 1.64482 1.3314 2.68952l2.3985 27.574c.0908 1.0448-.2138 2.0812-.8469 2.8813-.6332.8001-1.543 1.2983-2.5293 1.3851l-22.3126 1.9635c-.9862.0868-1.9682-.245-2.7299-.9223-.7616-.6774-1.2406-1.6449-1.3315-2.6896l-2.39842-27.574c-.09087-1.0447.21378-2.0811.84692-2.8812.6332-.80015 1.543-1.2984 2.5292-1.38519z" fill="#fafdff" stroke="#000"/><g stroke="#1a202c" stroke-width="2.26744"><path d="m31.8619 22.5109c-.3295 1.0702-.9064 2.0385-1.68 2.8201-.7737.7817-1.7206 1.353-2.758 1.6639s-2.1337.352-3.1931.1197-2.0497-.7309-2.8841-1.4522c-.8344-.7214-1.4877-1.6435-1.9027-2.6857-.4149-1.0423-.579-2.173-.4778-3.2933.1013-1.1202.4646-2.1959 1.0585-3.1331.5938-.9371 1.3999-1.7071 2.3479-2.2427"/><path d="m32.1465 19.7943c-.0784-.9019-.3267-1.78-.7305-2.5841s-.9552-1.5185-1.6229-2.1024-1.4385-1.0258-2.2684-1.3006c-.8299-.2747-1.7026-.3769-2.5684-.3008l.5974 6.868z"/><path d="m35.6148 31.353-18.0833 1.5913"/><path d="m36.0307 36.0625-18.0833 1.5913"/></g></g></svg>

<svg width="56" height="56" viewBox="0 0 56 56" fill="none" xmlns="http://www.w3.org/2000/svg">
<rect opacity="0.4" width="51.7385" height="32.2818" rx="5.80357" transform="matrix(0.999773 -0.102905 0.0983729 0.986376 1 24)" fill="url(#paint0_linear_923_853)"/>
<path d="M38.1389 3.88832L42.3476 4.03637C43.4638 4.07564 44.5186 4.5668 45.2799 5.40179C46.0412 6.23679 46.4467 7.34723 46.4071 8.48883L45.3626 38.6196C45.323 39.7612 44.8416 40.8405 44.0244 41.6199C43.2071 42.3994 42.1209 42.8152 41.0047 42.776L15.7525 41.8876C14.6363 41.8484 13.5815 41.3572 12.8202 40.5222C12.0589 39.6872 11.6534 38.5768 11.693 37.4352L12.7375 7.3044C12.7771 6.1628 13.2584 5.08356 14.0757 4.30409C14.893 3.52463 15.9792 3.10879 17.0954 3.14805L21.3041 3.29611" stroke="#1A202C" stroke-width="1.95349" stroke-linecap="round" stroke-linejoin="round"/>
<path d="M31.754 7.58438L35.4728 7.25713C36.4591 7.17034 37.441 7.50212 38.2027 8.17948C38.9644 8.85684 39.4433 9.8243 39.5342 10.869L41.9326 38.443C42.0235 39.4878 41.7188 40.5242 41.0857 41.3243C40.4525 42.1244 39.5428 42.6226 38.5565 42.7094L16.2439 44.6729C15.2576 44.7597 14.2756 44.4279 13.514 43.7506C12.7523 43.0732 12.2733 42.1057 12.1825 41.061L9.78404 13.487C9.69317 12.4423 9.99782 11.4059 10.631 10.6058C11.2641 9.80565 12.1739 9.3074 13.1602 9.22061L16.8789 8.89336" fill="#FAFDFF" stroke="#1A202C" stroke-width="3.40116" stroke-linecap="round" stroke-linejoin="round"/>
<path d="M31.8593 22.5112C31.5298 23.5814 30.953 24.5496 30.1793 25.3313C29.4057 26.1129 28.4587 26.6842 27.4213 26.9951C26.3839 27.306 25.2875 27.3472 24.2281 27.1149C23.1687 26.8826 22.1785 26.384 21.3441 25.6626C20.5097 24.9413 19.8564 24.0192 19.4415 22.9769C19.0265 21.9346 18.8624 20.8039 18.9636 19.6837C19.0649 18.5634 19.4283 17.4877 20.0221 16.5506C20.6159 15.6134 21.422 14.8434 22.37 14.3079" stroke="#1A202C" stroke-width="2.26744" stroke-linecap="round" stroke-linejoin="round"/>
<path d="M32.1433 19.7942C32.0649 18.8923 31.8167 18.0142 31.4129 17.2101C31.0091 16.406 30.4576 15.6916 29.7899 15.1077C29.1222 14.5238 28.3515 14.0819 27.5216 13.8071C26.6917 13.5324 25.8189 13.4302 24.9531 13.5063L25.5505 20.3744L32.1433 19.7942Z" stroke="#1A202C" stroke-width="2.26744" stroke-linecap="round" stroke-linejoin="round"/>
<path d="M35.6146 31.3528L17.5312 32.9441" stroke="#1A202C" stroke-width="2.26744" stroke-linecap="round" stroke-linejoin="round"/>
<path d="M36.0287 36.0623L17.9453 37.6536" stroke="#1A202C" stroke-width="2.26744" stroke-linecap="round" stroke-linejoin="round"/>
<defs>
<linearGradient id="paint0_linear_923_853" x1="0.359295" y1="9.44091" x2="53.5325" y2="15.7087" gradientUnits="userSpaceOnUse">
<stop stop-color="#938EFF"/>
<stop offset="1" stop-color="#B0ACFB"/>
</linearGradient>
</defs>
</svg>
